X:1
T:III.My thoughts are wingd with hopes
C: John Dowland
O: From The First Booke of songs or Ayres of foure parts, with Tableture for the Lute
M:3/2
L:1/4
K:Cdor
%%MIDI nobarlines
T:Cantus
%1
e2 d2 c2 |=B3 c d2 | e2 c3 c | =B4 z2 | g2 f2 e2 |
%2
d4 B e2 d2 c2 =B | c6 | B2 c2 B2 | G3 _A B2 "(1)"| e2 e2 d2
